!!!COM: Beethoven, Ludwig van
!!!CDT: 1770///-1827///
!!!OTL: Piano Sonata no. 2 in A major
!!!ODT: 1794///-1795///
!!!ODE: Joseph Haydn
!!!OMD: Rondo: Grazioso
!!!OPS: 2
!!!ONM: 2
!!!OMV: 4
**kern	**kern	**dynam
*Ipiano	*Ipiano	*Ipiano
*staff2	*staff1	*staff1
*>[A,B,B1,B,B2,C]	*>[A,B,B1,B,B2,C]	*>[A,B,B1,B,B2,C]
*>norep[A,B,B2,C]	*>norep[A,B,B2,C]	*>norep[A,B,B2,C]
*>A	*>A	*>A
*clefF4	*clefG2	*clefG2
*k[f#c#g#]	*k[f#c#g#]	*k[f#c#g#]
*A:	*A:	*A:
*M4/4	*M4/4	*M4/4
*MM120	*MM120	*MM120
=1-	=1-	=1-
16AA\LL	4r	.
16C#\	.	.
16E\	.	.
16A\JJ	.	.
4r	24c#/LL	p
.	24e/	.
.	24a/JJ	.
.	32cc#\LLL	.
.	32ee\	.
.	32aa\	.
.	32ccc#\JJJ	.
8A\L	4eee'\	.
8e\	.	.
8c#\	4eee'\	.
8e\J	.	.
=2	=2	=2
8B\L	(8eee\L	.
8e\	16g#\Jk)	.
.	16r	.
8d\	2g#/	.
8e\J	.	.
8B\L	.	.
8e\	.	.
8d\	4g#/	.
8e\J	.	.
=3	=3	=3
8c#\L	(4a\	.
8e\	.	.
8G#\	4b\	.
8e\J	.	.
8A\L	4cc#\	.
8e\	.	.
8F#\	4dd\)	.
8A\J	.	.
=4	=4	=4
.	(cc#q/	.
8E\L	(4.ee\)	.
8c#\	.	.
8A\	.	.
8c#\J	16dd\LL	.
.	16cc#\JJ	.
8E\L	4b\)	.
8G#\	.	.
8D\	4r	.
8G#\J	.	.
=5	=5	=5
8C#\L	8r	.
8A\	16A/LL	.
.	16c#/JJ	.
8E\	24e\LL	.
.	24a\	.
.	24cc#\	.
8A\J	24ee\	.
.	24aa\	.
.	24ccc#\JJ	.
8BB\L	4eee'\	.
8G#\	.	.
8E\	4eee'\	.
8G#\J	.	.
=6	=6	=6
8AA#\L	(8eee\L	.
8F#\	16f#\Jk)	.
.	16r	.
8E\	2f#/	.
8F#\J	.	.
8C#\L	.	.
8A#X\	.	.
8E\	4f#/	.
8A#\J	.	.
=7	=7	=7
*^	*	*
8E/L	2.BB\	(8g#/L	.
8B/	.	16a/L	.
.	.	16g#/JJ	.
8G#/	.	8f#/L	.
8B/J	.	8g#/J	.
8F#/L	.	8b/L	.
8B/	.	8a/	.
8An/	4BB\	8f#/	.
8B/J	.	8d#/J)	.
=8	=8	=8	=8
8r	2.E\	(2d#/ 2f#/	.
(8A/L	.	.	.
8B/	.	.	.
8A/J)	.	.	.
4G#/	.	8e/)	.
.	.	(8ee\L	.
4r	4r	8b\	.
.	.	8cc#\J)	.
=9	=9	=9	=9
*	*	*^	*
2r	[1E	2dd/	8r	.
.	.	.	(8b\L	.
.	.	.	8f#\	.
.	.	.	8g#\J)	.
8r	.	2cc#/	2a\	.
(8A/L	.	.	.	.
8c#/	.	.	.	.
8d#/J)	.	.	.	.
*v	*v	*	*	*
=10	=10	=10	=10
2E\_	2.g#/ 2.b/	(8e\L	.
.	.	8d#\)	.
.	.	8e'\	.
.	.	8f#'\J	.
8E\]	.	4e\	.
(8E/L	.	.	.
8BB/	4r	4r	.
8C#/J)	.	.	.
=11	=11	=11	=11
*^	*	*	*
2D/	[1EE	8r	2B\	.
.	.	(8b/L	.	.
.	.	8f#/	.	.
.	.	8g#/J)	.	.
4C#/	.	2a/	8r	.
.	.	.	(8A\L	.
4F#/	.	.	8c#\	.
.	.	.	8d#\J)	.
*	*	*v	*v	*
=12	=12	=12	=12
4E/	(8EE\L]	4B/ 4e/ 4g#/	pp
.	8DD#\	.	.
4r	8EE\	4r	.
.	8FF#'\J)	.	.
2ry	(8EE'/L	2r	.
.	8DDn'/	.	.
.	8CC#'/	.	.
.	8BBB'/J)	.	.
*v	*v	*	*
=13	=13	=13
8AAA/L	8r	.
8E/	16A/LL	.
.	16c#/JJ	.
8C#/	24e\LL	.
.	24a\	.
.	24cc#\	.
8E/J	24ee\	.
.	24aa\	.
.	24ccc#\JJ	.
8AA/L	4eee'\	.
8E/	.	.
8C#/	4eee'\	.
8E/J	.	.
=14	=14	=14
8BB\L	(8eee\L	.
8E\	16g#\Jk)	.
.	16r	.
8D\	2g#/	.
8E\J	.	.
8BB\L	.	.
8E\	.	.
8C#\	4a/	.
8A\J	.	.
=15	=15	=15
*	*^	*
8D\L	2ry	8.bS\L	.
8B\	.	.	.
.	.	16cc#\Jk	.
8F#\	.	12dd'\L	.
.	.	12ee'\	.
8B\J	.	.	.
.	.	12ff#'\J	.
8E\L	(4a/	4ry	.
8c#\	.	.	.
8E\	8cc#/L	4g#\	.
8d\J	8b/J)	.	.
*	*v	*v	*
=16	=16	=16
*^	*	*
8r	2.A\	2g#/ (2b/	.
(8d/L	.	.	.
8e/	.	.	.
8d/J)	.	.	.
4c#/	.	8a/)	.
.	.	16ff#\LL	.
.	.	16ee\JJ	.
4ry	4r	16dd\LL	.
.	.	16cc#\	.
.	.	16b\	.
.	.	16a\JJ	.
*v	*v	*	*
=17	=17	=17
4r	16g#/LL	.
.	16a/	.
.	16b/	.
.	16a/JJ	.
16B\LL	4g#/	.
16d\	.	.
16e\	.	.
16d\JJ	.	.
4B\	8r	.
.	16ee\LL	.
.	16dd\JJ	.
4r	16cc#\LL	.
.	16b\	.
.	16a\	.
.	16g#\JJ	.
=18	=18	=18
*	*^	*
4r	16a/LL	4ry	.
.	16b/	.	.
.	16cc#/	.	.
.	16b/JJ	.	.
4ry	4a/	16c#\LL	.
.	.	16e\	.
.	.	16a\	.
.	.	16e\JJ	.
4ry	8r	4c#\	.
.	16aa/LL	.	.
.	16gg#/JJ	.	.
4r	16ff#/LL	4ry	.
.	16ee/	.	.
.	16dd/	.	.
.	16cc#/JJ	.	.
*	*v	*v	*
=19	=19	=19
4d\ 4f#\	16b/LL	.
.	16dd/	.
.	16ff#/	.
.	16ee/JJ	.
4r	16dd/LL	.
.	16cc#/	.
.	16b/	.
.	16a/JJ	.
4E\ 4B\ 4d\	16g#/LL	.
.	16a/	.
.	16b/	.
.	16a/JJ	.
4r	16g#/LL	.
.	16f#/	.
.	16e/	.
.	16d/JJ	.
=20	=20	=20
4A\	16c#/LL	.
.	16a/	.
.	16e/	.
.	16cc#/JJ	.
4r	16a\LL	.
.	16ee\	.
.	16cc#\	.
.	16aa\JJ	.
2r	16ee\LL	.
.	16ccc#\	.
.	16aa\	.
.	16eee\JJ	.
.	16ddd\LL	.
.	16ccc#\	.
.	16bb\	.
.	16aa\JJ	.
*clefG2	*	*
=21	=21	=21
4r	16gg#\LL	.
.	16aa\	.
.	16bb\	.
.	16aa\JJ	.
16b\LL	4gg#\	.
16dd\	.	.
16ee\	.	.
16dd\JJ	.	.
4b\	16r	.
.	16ddd#\LL	.
.	16eee\	.
.	16dddn\JJ	.
4r	16ccc#\LL	.
.	16bb\	.
.	16aa\	.
.	16gg#\JJ	.
=22	=22	=22
4r	16aa\LL	.
.	16bb\	.
.	16ccc#\	.
.	16bb\JJ	.
16cc#\LL	4aa\	.
16ee\	.	.
16aa\	.	.
16ee\JJ	.	.
4cc#\	8r	.
.	16ccc#\LL	.
.	16bb\JJ	.
4r	16aa\LL	.
.	16gg#\	.
.	16ff#\	.
.	16ee\JJ	.
=23	=23	=23
4f#/ 4a/	16dd#\LL	.
.	16ff#\	.
.	16aa\	.
.	16gg#\JJ	.
4r	16ff#\LL	.
.	16ee\	.
.	16dd#\	.
.	16cc#\JJ	.
4d#'/ 4f#'/	16b\LL	.
.	16dd#\	.
.	16ff#\	.
.	16ee\JJ	.
4r	16dd#\LL	.
.	16cc#\	.
.	16b\	.
.	16a\JJ	.
=24	=24	=24
4e'/	16g#\LL	.
.	16e\	.
.	16b\	.
.	16g#\JJ	.
4r	16ee\LL	.
.	16b\	.
.	16gg#\	.
.	16ee\JJ	.
8r	16bb\LL	.
.	16gg#\	.
*clefF4	*	*
8E\ 8G#\L	16eee\	.
.	16ddd#\JJ	.
8F#\ 8A\	16ccc#\LL	.
.	16bb\	.
8G#\ 8B\J	16aa\	.
.	16gg#\JJ	.
=25	=25	=25
4A\ 4c#\	16ff#\LL	.
.	16aa\	.
.	16ccc#\	.
.	16bb\JJ	.
4r	16aa\LL	.
.	16gg#\	.
.	16ff#\	.
.	16ee\JJ	.
4BB\ 4D#\ 4F#\ 4A\	16dd#\LL	.
.	16ee\	.
.	16dd#\	.
.	16cc#\JJ	.
4r	16b\LL	.
.	16a\	.
.	16g#\	.
.	16f#\JJ	.
=26	=26	=26
16E\LL	4e/	.
16B\	.	.
16G#\	.	.
16B\JJ	.	.
16e\LL	4r	.
16B\	.	.
16G#\	.	.
16B\JJ	.	.
16E\LL	4r	.
16B\	.	.
16G#\	.	.
16B\JJ	.	.
16E\LL	(8b\L	.
16B\	.	.
16G#\	8ee\J)	.
16B\JJ	.	.
=27	=27	=27
16A\LL	(8ee\L	.
16B\	.	.
16F#\	8dd#\)	.
16B\JJ	.	.
16D#\LL	(8cc#W\	.
16B\	.	.
16BB\	8b\J)	.
16B\JJ	.	.
16AA\LL	4b'\	.
16B\	.	.
16BB\	.	.
16B\JJ	.	.
16AA\LL	4b'\	.
16B\	.	.
16BB\	.	.
16B\JJ	.	.
=28	=28	=28
16GG#\LL	4b\	.
16B\	.	.
16BB\	.	.
16B\JJ	.	.
.	bq/	.
16E\LL	4.gg#\	.
16B\	.	.
16G#\	.	.
16B\JJ	.	.
16E\LL	.	.
16B\	.	.
16G#\	(16aa\LL	.
16B\JJ	16gg#\JJ)	.
16E\LL	8ff#'\L	.
16B\	.	.
16G#\	8ee'\J	.
16B\JJ	.	.
=29	=29	=29
16A\LL	(8ee\L	.
16B\	.	.
16F#\	8dd#\)	.
16B\JJ	.	.
16D#\LL	(8cc#W\	.
16B\	.	.
16BB\	8b\J)	.
16B\JJ	.	.
16AA\LL	4b'\	.
16B\	.	.
16BB\	.	.
16B\JJ	.	.
16AA\LL	4b'\	.
16B\	.	.
16BB\	.	.
16B\JJ	.	.
=30	=30	=30
16GG#\LL	4b\	.
16B\	.	.
16BB\	.	.
16B\JJ	.	.
.	16bq/LL	.
.	16eeq/	.
.	16gg#q/JJ	.
16E\LL	4.bb\	.
16B\	.	.
16G#\	.	.
16B\JJ	.	.
16E\LL	.	.
16B\	.	.
16G#\	(16ccc#\LL	.
16B\JJ	16bb\JJ	.
16E\LL	16aa\LL	.
16B\	16gg#\	.
16G#\	16ff#\	.
16B\JJ	16ee\JJ)	.
=31	=31	=31
16A\LL	(8eeW\L	.
16B\	.	.
16F#\	8dd#\)	.
16B\JJ	.	.
16D#\LL	(8cc#W\	.
16B\	.	.
16BB\	8b\J)	.
16B\JJ	.	.
16AA\LL	4b'\	.
16B\	.	.
16BB\	.	.
16B\JJ	.	.
16AA\LL	4b'\	.
16B\	.	.
16BB\	.	.
16B\JJ	.	.
=32	=32	=32
*	*^	*
16GG#\LL	8b/	2ry	.
16B\	.	.	.
16G#\	4e/ 4ee/	.	.
16B\JJ	.	.	.
16GG#\LL	.	.	.
16B\	.	.	.
16G#\	8dn/ 8ddn/	.	.
16B\JJ	.	.	.
16GGn\LL	4cc#S/	4.c#\	.
16A\	.	.	.
16Gn\	.	.	.
16A\JJ	.	.	.
16GG\LL	(8cc#/L	.	.
16A\	.	.	.
16G\	8ee/J)	8e\	.
16A\JJ	.	.	.
*	*v	*v	*
=33	=33	=33
16FF#\LL	4e^/ (4ee^/	.
16A\	.	.
16F#\	.	.
16A\JJ	.	.
16FF#\LL	4d/ 4dd/)	.
16A\	.	.
16F#\	.	.
16A\JJ	.	.
16FF#\LL	4r	.
16G#X\	.	.
16F#\	.	.
16G#\JJ	.	.
16FF#\LL	4B#/ 4b#/	.
16G#\	.	.
16F#\	.	.
16G#\JJ	.	.
=34	=34	=34
*	*^	*
16EE\LL	8d#/ 8dd#/	2ry	.
16G#\	.	.	.
16E\	4c#^/ 4cc#^/	.	.
16G#\JJ	.	.	.
16EE\LL	.	.	.
16G#\	.	.	.
16E\	8Bn/ 8bn/	.	.
16G#\JJ	.	.	.
16EE\LL	4a#S/	4.A#\	.
16F#\	.	.	.
16E\	.	.	.
16F#\JJ	.	.	.
16EE\LL	(8a#/L	.	.
16F#\	.	.	.
16E\	8cc#/J)	8c#\	.
16F#\JJ	.	.	.
*	*v	*v	*
=35	=35	=35
16DD#/LL	4c#^/ (4cc#^/	.
16F#/	.	.
16D#X/	.	.
16F#/JJ	.	.
16DD#/LL	4B/ 4b/)	.
16F#/	.	.
16D#/	.	.
16F#/JJ	.	.
16DDn/LL	4r	.
16E/	.	.
16Dn/	.	.
16E/JJ	.	.
16DD/LL	4G#/ 4g#/	.
16E/	.	.
16D/	.	.
16E/JJ	.	.
=36	=36	=36
16CC#/LL	8An/ 8an/	.
16E/	.	.
16C#/	4a^/	.
16E/JJ	.	.
16CC#/LL	.	.
16E/	.	.
16C#/	4e^/ 4ee^/	.
16E/JJ	.	.
16BBB/LL	.	.
16E/	.	.
16BB/	4g#^/ 4dd^/	.
16E/JJ	.	.
16AAA/LL	.	.
16E/	.	.
16AA/	8a/ 8cc#/	.
16E/JJ	.	.
=37	=37	=37
16EE/LL	4g#/ 4b/	.
16E/	.	.
16FF#/	.	.
16E/JJ	.	.
16GG#/LL	4r	.
16E/	.	.
16AA/	.	.
16E/JJ	.	.
16BB/LL	4r	.
16E/	.	.
16C#/	.	.
16E/JJ	.	.
16D/LL	8r	.
16E/	.	.
16BB/	8g#\ (8gg#\	.
16E/JJ	.	.
=38	=38	=38
16C#/LL	8a\ 8aa\)	.
16E/	.	.
16AA/	4a^\ 4aa^\	.
16E/JJ	.	.
16CC#/LL	.	.
16E/	.	.
16C#/	4e^\ 4ee^\	.
16E/JJ	.	.
16BBB/LL	.	.
16E/	.	.
16BB/	4g#^\ 4dd^\	.
16E/JJ	.	.
16AAA/LL	.	.
16E/	.	.
16AA/	8a\ 8cc#\	.
16E/JJ	.	.
=39	=39	=39
16EE'/LL	4g#/ 4b/	pp
16E/	.	.
16FF#'/	.	.
16E/JJ	.	.
16GG#'/LL	4r	.
16E/	.	.
16AA'/	.	.
16E/JJ	.	.
16AA#'/LL	2r	.
16E/	.	.
16BB'/	.	.
16E/JJ	.	.
16BB#'/LL	.	.
16E/	.	.
16C#'/	.	.
16E/JJ	.	.
=40	=40	=40
16D'/LL	1r	.
16E/	.	.
16C#'/	.	.
16E/JJ	.	.
16BBn'/LL	.	.
16E/	.	.
16AAn'/	.	.
16E/JJ	.	.
16GG#'/LL	.	.
16E/	.	.
16FF#'/	.	.
16E/JJ	.	.
16GG#'/LL	.	.
16E/	.	.
16EE'/	.	.
16E/JJ	.	.
=41	=41	=41
24AAA/LL	4r	.
24CC#/	.	.
24EE/	.	.
24AA/	.	.
24C#/	.	.
24E/JJ	.	.
32A/	32r	.
32r	32c#\LLL	.
16r	32e\	.
.	32a\	.
8r	32cc#\	.
.	32ee\	.
.	32aa\	.
.	32ccc#\JJJ	.
8A\L	4eee'\	.
8e\	.	.
8c#\	4eee'\	.
8e\J	.	.
=42	=42	=42
8B\L	(8eee\L	.
8e\	16g#\Jk)	.
.	16r	.
8d\	2g#/	.
8e\J	.	.
8B\L	.	.
8e\	.	.
8d\	4g#/	.
8e\J	.	.
=43	=43	=43
8c#\L	8.a/L	.
8A\	.	.
.	16e/Jk	.
8G#\	8.b/L	.
8E\J	.	.
.	16e/Jk	.
8A\L	8.cc#\L	.
8c#\	.	.
.	16a\Jk	.
8F#\	8.dd\L	.
8A\J	.	.
.	16a\Jk	.
=44	=44	=44
8E\L	(4.ee\	.
8c#\	.	.
8A\	.	.
8c#\J	16dd\LL	.
.	16cc#\JJ)	.
8E\L	4b\	.
8G#\	.	.
8D\	4r	.
8G#\J	.	.
=45	=45	=45
8C#\L	8r	.
8A\	16A/LL	.
.	16c#/JJ	.
8E\	24e\LL	.
.	24a\	.
.	24cc#\	.
8A\J	24ee\	.
.	24aa\	.
.	24ccc#\JJ	.
8BB\L	4eee'\	.
8G#\	.	.
8E\	4eee'\	.
8G#\J	.	.
=46	=46	=46
8AA#\L	(8eee\L	.
8F#\	16f#\Jk)	.
.	16r	.
8E\	2f#/	.
8F#\J	.	.
8C#\L	.	.
8A#X\	.	.
8E\	4f#/	.
8A#\J	.	.
=47	=47	=47
*^	*	*
8E/L	2.BB\	(8g#/L	.
8B/	.	16a/L	.
.	.	16g#/JJ	.
8G#/	.	8f#/L	.
8B/J	.	8g#/J	.
8F#/L	.	8b/L	.
8B/	.	8a/	.
8An/	4BB\	8f#/	.
8B/J	.	8d#/J)	.
=48	=48	=48	=48
8r	2.E\	2d#/ (2f#/	.
(8A/L	.	.	.
8B/	.	.	.
8A/J	.	.	.
4G#/)	.	8e/)	.
.	.	(8ee\L	.
4r	4r	8b\	.
.	.	8cc#\J)	.
=49	=49	=49	=49
*	*	*^	*
2r	[1E	2dd/	8r	.
.	.	.	(8b\L	.
.	.	.	8f#\	.
.	.	.	8g#\J)	.
8r	.	2cc#/	2a\	.
(8A/L	.	.	.	.
8c#/	.	.	.	.
8d#/J)	.	.	.	.
*v	*v	*	*	*
=50	=50	=50	=50
2E\_	2.g#/ 2.b/	(8e\L	.
.	.	8d#\)	.
.	.	8e'\	.
.	.	8f#'\J	.
8E\]	.	4e\	.
(8E\L	.	.	.
8BB\	4r	4r	.
8C#\J)	.	.	.
=51	=51	=51	=51
*^	*	*	*
2D/	[1EE	8r	2B\	.
.	.	(8b/L	.	.
.	.	8f#/	.	.
.	.	8g#/J)	.	.
4C#/	.	2a/	8r	.
.	.	.	(8A\L	.
4F#/	.	.	8c#\	.
.	.	.	8d#\J)	.
*	*	*v	*v	*
=52	=52	=52	=52
4E/	(8EE\L]	4B/ 4e/ 4g#/	pp
.	8DD#\	.	.
4r	8EE\	4r	.
.	8FF#'\J)	.	.
2r	(8EE'/L	2r	.
.	8DDn'/	.	.
.	8CC#'/	.	.
.	8BBB'/J)	.	.
*v	*v	*	*
=53	=53	=53
8AAA\L	22AA/LL	.
.	22C#/	.
.	22E/	.
8E\	.	.
.	22A/	.
.	22c#/	.
.	22e/	.
8C#\	.	.
.	22a/	.
.	22cc#/	.
.	22ee/	.
8E\J	.	.
.	22aa/	.
.	22ccc#/JJ	.
8AA\L	4eee'\	.
8E\	.	.
8C#\	4eee'\	.
8E\J	.	.
=54	=54	=54
8BB\L	(8eee\L	.
8E\	16g#\Jk)	.
.	16r	.
8D\	(2g#/	.
8E\J	.	.
8BB\L	.	.
8E\	.	.
8C#\	4a/)	.
8A\J	.	.
=55	=55	=55
*	*^	*
8D\L	2ry	8.bS\L	.
8B\	.	.	.
.	.	16cc#\Jk	.
8F#\	.	12dd'\L	.
.	.	12ee'\	.
8B\J	.	.	.
.	.	12ff#'\J	.
8E\L	(4an/	4ry	.
8c#\	.	.	.
8E\	8cc#/L	4g#\	.
8d\J	8b/J)	.	.
*	*v	*v	*
=56	=56	=56
*^	*	*
8r	2.A\	2g#/ (2b/	.
(8d/L	.	.	.
8e/	.	.	.
8d/J)	.	.	.
4c#/	.	12a/)	.
.	.	12e/L	.
.	.	12fn/J	.
4ry	4r	12f#/L	.
.	.	12gn/	.
.	.	12g#/J	.
*v	*v	*	*
=57!|:	=57!|:	=57!|:
*>B	*>B	*>B
*k[]	*k[]	*k[]
*a:	*a:	*a:
4AA\ 4C\ 4E\ 4A\	12r	.
.	12a'\L	ff
.	12b-'\J	.
4A\ 4c\ 4e\	12bn'\L	.
.	12cc'\	.
.	12cc#'\J	.
4r	12dd'\L	.
.	12dd#'\	.
.	12ee'\J	.
8.A\ 8.c\ 8.e\L	(12ff\L	.
.	12ee\)	.
.	12a'\J	.
16A\ 16c\ 16e\Jk	.	.
=58	=58	=58
4B\ 4d\ 4e\	12r	.
.	12g#'\L	.
.	12a'\J	.
4B\ 4d\ 4e\	12a#'\L	.
.	12b'\	.
.	12cc'\J	.
4r	12cc#'\L	.
.	12dd'\	.
.	12dd#'\J	.
8.B\ 8.d\ 8.e\L	(12ee\L	.
.	12ddn\)	.
.	12g#'\J	.
16B\ 16d\ 16e\Jk	.	.
=59	=59	=59
4c\ 4e\	12r	.
.	12a'\L	.
.	12b'\J	.
4r	12ccn'\L	.
.	12cc#'\	.
.	12dd'\J	.
2r	12dd#'\L	.
.	12ee'\	.
.	12ff'\J	.
.	12ff#'\L	.
.	12gg'\	.
.	12gg#'\J	.
=60	=60	=60
4r	12aa'\L	.
.	12ee'\	.
.	12ffn'\J	.
4D\ 4F\ 4B\	(12ddn\L	.
.	12ff\)	.
.	12b'\J	.
4E\ 4A\ 4c\	(12ccn\L	.
.	12ee\)	.
.	12a'\J	.
4E\ 4B\ 4d\	(12b\L	.
.	12dd\)	.
.	12g#'\J	.
=61	=61	=61
12r	4c/ 4e/ 4a/	.
12AA'/L	.	.
12BB-'/J	.	.
12BBn'/L	4c/ 4e/ 4a/	.
12C'/	.	.
12C#'/J	.	.
12D'\L	4r	.
12D#'\	.	.
12E'\J	.	.
(12F\L	8.c/ 8.e/ 8.a/L	.
12E\)	.	.
12AA'\J	.	.
.	16c/ 16e/ 16a/Jk	.
=62	=62	=62
12r	4f\ 4a\ 4dd\ 4ff\	.
12DD'/L	.	.
12EE'/J	.	.
12FF'/L	4f\ 4a\ 4dd\ 4ff\	.
12FF#'/	.	.
12GG'/J	.	.
12GG#'/L	4r	.
12AA'/	.	.
12BB-'/J	.	.
(12BBn/L	8.f\ 8.a\ 8.dd\ 8.ff\L	.
12AA/)	.	.
12DD'/J	.	.
.	16f\ 16a\ 16dd\ 16ff\Jk	.
=63	=63	=63
12r	4f\ 4g\ 4b\ 4dd\ 4ff\	.
12GGG'/L	.	.
12AAA'/J	.	.
12BBB'/L	4f\ 4g\ 4b\ 4dd\ 4ff\	.
12CC'/	.	.
12DD'/J	.	.
12EE'/L	4r	.
12FF'/	.	.
12GG'/J	.	.
12AA'/L	8.f\ 8.g\ 8.b\ 8.dd\ 8.ff\L	.
12BB'/	.	.
12C'/J	.	.
.	16f\ 16g\ 16b\ 16dd\ 16ff\Jk	.
=64	=64	=64
12D'\L	4f\ 4g\ 4b\ 4dd\ 4ff\	.
12E'\	.	.
12F'\J	.	.
12G'\L	8.f\ 8.g\ 8.b\ 8.dd\ 8.ff\L	.
12A'\	.	.
12B'\J	.	.
.	16f\ 16g\ 16b\ 16dd\ 16ff\Jk	.
12c'\L	4e\ 4g\ 4cc\ 4ee\	.
12B'\	.	.
12A'\J	.	.
12G'\L	8.e\ 8.g\ 8.cc\ 8.ee\L	.
12F'\	.	.
12E'\J	.	.
.	16e\ 16g\ 16cc\ 16ee\Jk	.
=65	=65	=65
12F'\L	4d/ 4f/ 4a/ 4dd/	.
12G'\	.	.
12A'\J	.	.
12F#'\L	8.c/ 8.e-/ 8.f#/ 8.a/ 8.cc/L	.
12G'\	.	.
12A'\J	.	.
.	16c/ 16e-/ 16f#/ 16a/ 16cc/Jk	.
12GG'\L	4c/ 4en/ 4g/ 4cc/	.
12C'\	.	.
12E'\J	.	.
(12G\L	4B/ 4d/ 4fn/ 4g/ 4b/	.
12Fn\)	.	.
12D'\J	.	.
=66	=66	=66
*>B1	*>B1	*>B1
12C'\L	4c/ 4e/ 4g/ 4cc/	.
12G'\	.	.
12E'\J	.	.
12C'/L	4r	.
12GG'/	.	.
12EE'/J	.	.
4CC/	12r	.
.	12e'/L	.
.	12f'/J	.
4r	12f#'/L	.
.	12g'/	.
.	12g#'/J	.
=67:|!	=67:|!	=67:|!
*>B2	*>B2	*>B2
12C'\L	4c/ 4e/ 4g/ 4cc/	.
12G'\	.	.
12E'\J	.	.
12C'/L	4r	.
12GG'/	.	.
12EE'/J	.	.
4CC/	12r	.
.	12G'/L	.
.	12A-'/J	.
4r	12An'/L	.
.	12B-'/	.
.	12Bn'/J	.
=68||	=68||	=68||
*>C	*>C	*>C
4C\ 4E\ 4G\	12c'/L	ff
.	12c#'/	.
.	12d'/J	.
4r	12e-'/L	.
.	12en'/	.
.	12f'/J	.
2r	12f#'/L	.
.	12g'/	.
.	12g#'/J	.
.	12a'/L	.
.	12b-'/	.
.	12bn'/J	.
=69	=69	=69
*	*^	*
12r	(4cc/	2d\	.
12GG'/L	.	.	.
12AA'/J	.	.	.
12AA#'/L	4b/)	.	.
12BB'/	.	.	.
12C'/J	.	.	.
12C#'\L	2r	2ry	.
12D'\	.	.	.
12D#'\J	.	.	.
12En'\L	.	.	.
12F'\	.	.	.
12F#'\J	.	.	.
*	*v	*v	*
=70	=70	=70
*^	*	*
(4G/	2D\	12r	.
.	.	12d'/L	.
.	.	12e'/J	.
4Fn/)	.	12f'/L	.
.	.	12f#'/	.
.	.	12g'/J	.
2ry	2r	12g#'/L	.
.	.	12a'/	.
.	.	12b-'/J	.
.	.	12bn'/L	.
.	.	12cc'/	.
.	.	12cc#'/J	.
*v	*v	*	*
=71	=71	=71
*	*^	*
12r	(4dd/	2e\	.
12AA'/L	.	.	.
12BB'/J	.	.	.
12C'/L	4ccn/)	.	.
12C#'/	.	.	.
12D'/J	.	.	.
12D#'\L	2r	2ry	.
12E'\	.	.	.
12F'\J	.	.	.
12F#'\L	.	.	.
12G'\	.	.	.
12G#'\J	.	.	.
*	*v	*v	*
=72	=72	=72
*^	*	*
(4A/	2E\	12r	.
.	.	12e'/L	.
.	.	12f#'/J	.
4Gn/)	.	12g'/L	.
.	.	12a'/	.
.	.	12a#'/J	.
2ry	2r	12b'\L	.
.	.	12cc'\	.
.	.	12cc#'\J	.
.	.	12dd'\L	.
.	.	12dd#'\	.
.	.	12ee'\J	.
*v	*v	*	*
=73	=73	=73
2.D#\ 2.F#\ 2.A\ 2.B\	12ee#'\L	.
.	12ff#'\	.
.	12gg'\J	.
.	12gg#'\L	.
.	12aa'\	.
.	12aa#'\J	.
.	(12bb\L	.
.	12b\)	.
.	12ccc'\J	.
4D#\ 4F#\ 4B\	(12aan\L	.
.	12b\)	.
.	12bb'\J	.
=74	=74	=74
4E\ 4G\ 4B\	(12ggn\L	.
.	12b\)	.
.	12aa'\J	.
4A\ 4c\	(12ff#\L	.
.	12a\)	.
.	12gg'\J	.
4B\	(12ee\L	.
.	12g\)	.
.	12ff#'\J	.
4BB\ 4A\	(12dd#\L	.
.	12f#X\)	.
.	12ff#'\J	.
=75	=75	=75
4E\ 4G#\	(12ee\L	.
.	12g#\)	.
.	12ffn'\J	.
4r	(12ddn\L	.
.	12b\)	.
.	12ee'\J	.
2r	(12cc\L	.
.	12a\)	.
.	12dd'\J	.
.	(12b\L	.
.	12g#\)	.
.	12cc'\J	.
=76	=76	=76
4AA\ 4C\ 4E\ 4A\	12r	.
.	12a'\L	.
.	12b-'\J	.
4A\ 4c\ 4e\	12bn'\L	.
.	12cc'\	.
.	12cc#'\J	.
4r	12dd'\L	.
.	12dd#'\	.
.	12ee'\J	.
8.AA\ 8.C\ 8.E\ 8.A\L	(12ff\L	.
.	12ee\)	.
.	12a'\J	.
16AA\ 16C\ 16E\ 16A\Jk	.	.
=77	=77	=77
*^	*	*
2.ry	4BB\ 4D\ 4E\ 4G#\	12r	.
.	.	12g#'\L	.
.	.	12a'\J	.
.	4B\ 4d\ 4e\	12a#'\L	.
.	.	12b'\	.
.	.	12cc'\J	.
.	4r	12cc#'\L	.
.	.	12dd'\	.
.	.	12dd#'\J	.
8.E/ 8.G#/L	8.BB\ 8.D\L	(12ee\L	.
.	.	12ddn\)	.
.	.	12g#'\J	.
16E/ 16G#/Jk	16BB\ 16D\Jk	.	.
*v	*v	*	*
=78	=78	=78
*	*^	*
4C\ 4E\ 4A\	12r	4ry	.
.	12a'/L	.	.
.	12b'/J	.	.
4r	12cc'/L	4c\ 4e\ 4a\	.
.	12dd'/	.	.
.	12dd#'/J	.	.
2r	12ee'\L	4ry	.
.	12ff'\	.	.
.	12ff#'\J	.	.
.	12gg'\L	4ry	.
.	12gg#'\	.	.
.	12aa'\J	.	.
*	*v	*v	*
=79	=79	=79
4r	12bb-'\L	.
.	12bbn'\	.
.	12ccc'\J	.
4F\ 4A\	12ccc#'\L	.
.	12ddd'\	.
.	12ddd#'\J	.
4E\ 4A\ 4c\	(12eee\L	.
.	12cccn\)	.
.	12aa'\J	.
4E\ 4B\ 4d\	(12ddd#\L	.
.	12bb\)	.
.	12gg#'\J	.
=80	=80	=80
4A\ 4c\	12aa'\L	.
.	12ff'\	.
.	12ee'\J	.
4r	12dd'\L	.
.	12cc'\	.
.	12b'\J	.
12r	4a\	.
12A'\L	.	.
12G'\J	.	.
12F'\L	4r	.
12E'\	.	.
12D'\J	.	.
=81	=81	=81
4C\	(12c/L	pp
.	12c#/	.
.	12d/J	.
4r	12e-/L	.
.	12en/	.
.	12f/J	.
2r	12f#/L	.
.	12g/	.
.	12g#/J	.
.	12a/L	.
.	12b-/	.
.	12bn/J)	.
=82	=82	=82
*	*^	*
12r	(4cc/	2d\	.
(12GG/L	.	.	.
12AA/J	.	.	.
12AA#/L	4b/)	.	.
12BB/	.	.	.
12C/J	.	.	.
12C#\L	2r	2ry	.
12D\	.	.	.
12D#\J	.	.	.
12E\L	.	.	.
12F\	.	.	.
12F#\J)	.	.	.
*	*v	*v	*
=83	=83	=83
*^	*	*
(4G/	2D\	12r	.
.	.	(12d/L	.
.	.	12e/J	.
4Fn/)	.	12f/L	.
.	.	12f#/	.
.	.	12g/J	.
2ry	2r	12g#/L	.
.	.	12a/	.
.	.	12b-/J	.
.	.	12bn/L	.
.	.	12cc/	.
.	.	12cc#/J)	.
*v	*v	*	*
=84	=84	=84
*	*^	*
12r	(4dd/	2e\	.
(12AA/L	.	.	.
12BB/J	.	.	.
12C\L	4ccn/)	.	.
12C#\	.	.	.
12D\J	.	.	.
12D#\L	2r	2ry	.
12E\	.	.	.
12F\J	.	.	.
12F#\L	.	.	.
12G\	.	.	.
12G#\J)	.	.	.
*	*v	*v	*
=85	=85	=85
*^	*	*
4A/	2E\	12r	.
.	.	(12e/L	.
.	.	12f#/J	.
4Gn/	.	12gn/L	.
.	.	12a/	.
.	.	12a#/J	.
2ry	2r	12b\L	.
.	.	12cc\	.
.	.	12cc#\J	.
.	.	12dd\L	.
.	.	12dd#\	.
.	.	12ee\J	.
*v	*v	*	*
=86	=86	=86
2.D#\ 2.F#\ 2.A\ 2.B\	12ee#\L	.
.	12ff#\	.
.	12gg\J	.
.	12gg#\L	.
.	12aa\	.
.	12aa#\J	.
.	12bb\L	.
.	12b\	.
.	12ccc\J	.
4D#\ 4F#\ 4B\	12aan\L	.
.	12b\	.
.	12bb\J	.
=87	=87	=87
4E\ 4G\ 4B\	12gg\L	.
.	12b\	.
.	12aa\J	.
4A\ 4c\	12ff#\L	.
.	12a\	.
.	12gg\J	.
4B\	12ee\L	.
.	12g\	.
.	12ff#\J	.
4BB\ 4A\	12dd#\L	.
.	12f#X\)	.
.	12ff#\J	.
=88	=88	=88
4E\ 4G#\	(12ee\L	.
.	12g#\)	.
.	12ffn'\J	.
4r	(12dd\L	.
.	12b\)	.
.	12ee'\J	.
2r	(12cc\L	.
.	12a\)	.
.	12dd'\J	.
.	(12b\L	.
.	12g#X\)	.
.	12cc'\J	.
=89	=89	=89
4AA\ 4C\ 4E\ 4A\	12r	.
.	12a'\L	ff
.	12b-'\J	.
4A\ 4c\ 4e\	12bn'\L	.
.	12cc'\	.
.	12cc#'\J	.
4r	12dd'\L	.
.	12dd#'\	.
.	12ee'\J	.
8.AA\ 8.C\ 8.E\ 8.A\L	(12ff\L	.
.	12ee\)	.
.	12a'\J	.
16AA\ 16C\ 16E\ 16A\Jk	.	.
=90	=90	=90
*^	*	*
2.ry	4BB\ 4D\ 4E\ 4G#\	12r	.
.	.	12g#'\L	.
.	.	12a'\J	.
.	4B\ 4d\ 4e\	12a#'\L	.
.	.	12b'\	.
.	.	12cc'\J	.
.	4r	12cc#'\L	.
.	.	12dd'\	.
.	.	12dd#'\J	.
8.E/ 8.G#/L	8.BB\ 8.D\L	(12ee\L	.
.	.	12ddn\)	.
.	.	12g#'\J	.
16E/ 16G#/Jk	16BB\ 16D\Jk	.	.
*v	*v	*	*
=91	=91	=91
*	*^	*
4C\ 4E\ 4A\	12r	4ry	.
.	12a'/L	.	.
.	12b'/J	.	.
4r	12cc'/L	4c\ 4e\ 4a\	.
.	12cc#'/	.	.
.	12dd'/J	.	.
2r	12dd#'\L	4ry	.
.	12ee'\	.	.
.	12ff'\J	.	.
.	12ff#'\L	4ry	.
.	12gg'\	.	.
.	12gg#'\J	.	.
*clefG2	*	*	*
*	*v	*v	*
=92	=92	=92
*^	*	*
2r	1f 1a	12aa'\L	.
.	.	12bb-'\	.
.	.	12bbn'\J	.
.	.	12ccc'\L	.
.	.	12bb'\	.
.	.	12ddd'\J	.
2dd#/	.	12ccc'\L	.
.	.	12bb'\	.
.	.	12ddd'\J	.
.	.	12ccc'\L	.
.	.	12bb'\	.
.	.	12aa'\J	.
*v	*v	*	*
=93	=93	=93
*	*^	*
12r	2ry	[2gg#\	pp
12e'/L	.	.	.
12f'/J	.	.	.
12f#'/L	.	.	.
12g'/	.	.	.
12g#'/J	.	.	.
12a'/L	2eee/	2gg#\]	.
12a#'/	.	.	.
12b'/J	.	.	.
(12cc/L	.	.	.
12b/)	.	.	.
12e'/J	.	.	.
*	*v	*v	*
=94	=94	=94
12r	1ff# 1aa 1ddd#	.
12f#/L	.	.
12g#/J	.	.
12a/L	.	.
12a#/	.	.
12b/J	.	.
(12cc/L	.	.
12an/)	.	.
12f#'/J	.	.
(12cc/L	.	.
12a/)	.	.
12f#'/J	.	.
=95	=95	=95
12r	2.ee\ 2.gg#\ 2.bb\ 2.dddn\	.
12g#'\L	.	.
12a'\J	.	.
12b'\L	.	.
12cc'\	.	.
12cc#'\J	.	.
12dd'\L	.	.
12dd#'\	.	.
12ee'\J	.	.
12ffn'\L	4r	.
12ff#'\	.	.
12ggn'\J	.	.
=96	=96	=96
1r	12gg#'\L	.
.	12aa'\	.
.	12aa#'\J	.
.	12bb'\L	.
.	12cccn'\	.
.	12ccc#'\J	.
.	12ddd'\L	.
.	12ccc#'\	.
.	12bb'\J	.
.	12aan'\L	.
.	12gg#'\	.
.	12ff#'\J	.
=97	=97	=97
1r	12ee'\L	.
.	12dd'\	.
.	12cc#'\J	.
.	12b'/L	.
.	12a'/	.
.	12g#'/J	.
.	12b'/L	.
.	12a'/	.
.	12g#'/J	.
.	12f#'/L	.
.	12e'/	.
.	12d#'/J	.
*clefF4	*	*
=98	=98	=98
4r	12f#'/L	.
.	12e'/	.
.	12dn'/J	.
12c#'/L	4r	.
12B'/	.	.
12A#'/J	.	.
12d'/L	4r	.
12c#'/	.	.
12B'/J	.	.
12An'/L	4r	.
12G#'/	.	.
12F#'/J	.	.
=99	=99	=99
12B'/L	1ry	.
12A'/	.	.
12G#'/J	.	.
12F#'/L	.	.
12E'/	.	.
12D#'/J	.	.
12F#'/L	.	.
12E'/	.	.
12Dn'/J	.	.
12C#'/L	.	.
12BB'/	.	.
12AA#/J	.	.
=100||	=100||	=100||
*k[f#c#g#]	*k[f#c#g#]	*k[f#c#g#]
*A:	*A:	*A:
12D'/L	1ry	.
12C#'/	.	.
12BB'/J	.	.
12AAn'/L	.	.
12GG#'/	.	.
12FF#'/J	.	.
12EE'\L	.	.
12FF#'\	.	.
12EE'\J	.	.
12DD'\L	.	.
12CC#'\	.	.
12BBB'\J	.	.
=101	=101	=101
32AAA/LLL	4r	.
32BBB/	.	.
32CC#/	.	.
32DD/	.	.
32EE/	.	.
32FF#/	.	.
32GG#/	.	.
32AA/JJJ	.	.
32BB\LLL	4r	.
32C#\	.	.
32D\	.	.
32E\	.	.
32F#\	.	.
32G#\JJJ	.	.
32A/LLL	.	.
32B/JJJ	.	.
2r	32c#/LLL	.
.	32d/	.
.	32e/	.
.	32f#/	.
.	32g#/	.
.	32a/	.
.	32b/	.
.	32cc#/JJJ	.
.	32dd\LLL	.
.	32ee\	.
.	32ff#\	.
.	32gg#\	.
.	32aa\	.
.	32bb\	.
.	32ccc#\	.
.	32ddd\JJJ	.
=102	=102	=102
8B\L	(8eee\L	.
8e\	16g#\Jk)	.
.	16r	.
8d\	2g#/	.
8e\J	.	.
8B\L	.	.
8e\	.	.
8d\	4g#/	.
8e\J	.	.
=103	=103	=103
8c#\L	(8.a\L	.
8A\	.	.
.	32cc#\LL	.
.	32b\JJJ)	.
8G#\	(8.b\L	.
8E\J	.	.
.	32dd\LL	.
.	32cc#\JJJ)	.
8A\L	(8.cc#\L	.
8c#\	.	.
.	32ee\LL	.
.	32dd\JJJ)	.
8F#\	(8.dd\L	.
8A\J	.	.
.	16dd#\Jk)	.
=104	=104	=104
8E\L	(4..ee\	.
8c#\	.	.
8A\	.	.
8c#\J	.	.
.	32ddn\LLL	.
.	32cc#\JJJ	.
8E\L	4b\)	.
8G#\	.	.
8D\	4r	.
8G#\J	.	.
=105	=105	=105
8C#\L	32A/LLL	.
.	32B/	.
.	32A/	.
.	32G#/	.
8A\	32A/	.
.	32B/	.
.	32c#/	.
.	32d#/JJJ	.
8E\	32e\LLL	.
.	32f#\	.
.	32g#\	.
.	32a\	.
8A\J	32b\	.
.	32cc#\	.
.	32dd#X\	.
.	(32ee\JJJ	.
8BB\L	24ff#\LL	.
.	24gg#\	.
.	24aa\	.
8G#\	24bb\	.
.	24ccc#\	.
.	24ddd#X\JJ)	.
8E\	8eee\L	.
8G#\J	8eee\J	.
=106	=106	=106
8AA#\L	(8eee\L	.
8F#\	16f#\Jk)	.
.	16r	.
8E\	2f#/	.
8F#\J	.	.
8C#\L	.	.
8A#X\	.	.
8E\	4f#/	.
8A#\J	.	.
=107	=107	=107
*^	*	*
8E/L	2.BB\	(8g#/L	.
8B/	.	16an/L	.
.	.	16g#/JJ	.
8G#/	.	8f#/L	.
8B/J	.	8g#/J	.
8F#/L	.	8b/L	.
8B/	.	8a/	.
8An/	4BB\	8f#/	.
8B/J	.	8d#/J)	.
=108	=108	=108	=108
8r	2.E\	2d#/ (2f#/	.
(8A/L	.	.	.
8B/	.	.	.
8A/J	.	.	.
4G#/)	.	16e\LL)	.
.	.	(16ee\	.
.	.	16dd#X\	.
.	.	16ee\JJ	.
4ry	4r	16ff#\LL	.
.	.	16ee\	.
.	.	16b\	.
.	.	16cc#\JJ)	.
=109	=109	=109	=109
*	*	*^	*
2r	[1E	(2ddn/	16r	.
.	.	.	16b\LL	.
.	.	.	16a#\	.
.	.	.	16b\JJ	.
.	.	.	16cc#\LL	.
.	.	.	16b\	.
.	.	.	16f#\	.
.	.	.	16g#\JJ	.
8r	.	2cc#/)	2an\	.
(16A/LL	.	.	.	.
16G#/JJ	.	.	.	.
16A/LL	.	.	.	.
16B/	.	.	.	.
16c#/	.	.	.	.
16d#/JJ)	.	.	.	.
*	*	*v	*v	*
=110	=110	=110	=110
4e/	(8E\L]	4g#/ 4b/	.
.	16D#\L	.	.
.	16E\JJ	.	.
4ry	16F#\LL	4r	.
.	16E\	.	.
.	16D#\	.	.
.	16E\JJ)	.	.
4ry	[2EE/	16r	.
.	.	(16e/LL	.
.	.	16d#/	.
.	.	16e/JJ	.
4ry	.	16f#/LL	.
.	.	16e/	.
.	.	16B/	.
.	.	16c#/JJ)	.
*v	*v	*	*
=111	=111	=111
*	*^	*
2EE/_	16r	2dn\	.
.	(16b/LL	.	.
.	16a#/	.	.
.	16b/JJ	.	.
.	16cc#/LL	.	.
.	16b/	.	.
.	16f#/	.	.
.	16g#/JJ)	.	.
8EE/L]	2an/	2c#\	.
16FF#/L	.	.	.
16GG#/JJ	.	.	.
16AA/LL	.	.	.
16BB/	.	.	.
16C#/	.	.	.
16D#/JJ	.	.	.
*	*v	*v	*
=112	=112	=112
16E\LL	4B/ 4g#/	.
16F#\	.	.
16G#\	.	.
16A\JJ	.	.
16B\LL	4r	.
16A\	.	.
16G#\	.	.
16F#\JJ	.	.
16E\LL	2r	.
16F#\	.	.
16E\	.	.
16Dn\JJ	.	.
16C#\LL	.	.
16D\	.	.
16C#\	.	.
16BB\JJ	.	.
=113	=113	=113
*^	*	*
32A/LLL	8AA\L	4r	.
32B/	.	.	.
32A/	.	.	.
32G#/	.	.	.
32A/	8E\	.	.
32B/	.	.	.
32c#/	.	.	.
32d/JJJ	.	.	.
4r	8C#\	32e/LLL	.
.	.	32f#/	.
.	.	32g#/	.
.	.	32a/	.
.	8E\J	32b/	.
.	.	32cc#/	.
.	.	32dd/	.
.	.	32ee/JJJ	.
4r	8AA\L	24ff#\LL	.
.	.	24gg#\	.
.	.	24aa\	.
.	8E\	24bb\	.
.	.	24ccc#\	.
.	.	24ddd\JJ	.
4r	8C#\	8eee'\L	.
.	8E\J	8eee'\J	.
*v	*v	*	*
=114	=114	=114
8BB\L	(8eee\L	.
8E\	16g#\Jk)	.
.	16r	.
8D\	2g#/	.
8E\J	.	.
8BB\L	.	.
8E\	.	.
8C#\	4a/	.
8A\J	.	.
=115	=115	=115
*	*^	*
8D\L	4ry	8.bS\L	.
8B\	.	.	.
.	.	16cc#\Jk	.
8F#\	4ry	12dd'\L	.
.	.	12ee'\	.
8B\J	.	.	.
.	.	12ff#'\J	.
8E\L	(4an/	4r	.
8c#\	.	.	.
8E\	8cc#/L	4g#\	.
8d\J	8b/J)	.	.
*	*v	*v	*
=116	=116	=116
*^	*	*
8r	2.A\	2g#/ (2b/	.
8d/L	.	.	.
8e/	.	.	.
8d/J	.	.	.
4c#/	.	8a/)	.
.	.	16ff#\LL	.
.	.	16ee\JJ	.
4ry	4r	16dd\LL	.
.	.	16cc#\	.
.	.	16b\	.
.	.	16a\JJ	.
*v	*v	*	*
=117	=117	=117
4r	16g#/LL	.
.	16a/	.
.	16b/	.
.	16a/JJ	.
16B\LL	4g#/	.
16d\	.	.
16e\	.	.
16d\JJ	.	.
4B\	8r	.
.	16ee\LL	.
.	16dd\JJ	.
4r	16cc#\LL	.
.	16b\	.
.	16a\	.
.	16g#\JJ	.
=118	=118	=118
*	*^	*
4r	16a/LL	4ry	.
.	16b/	.	.
.	16cc#/	.	.
.	16b/JJ	.	.
4ry	4a/	16c#\LL	.
.	.	16e\	.
.	.	16a\	.
.	.	16e\JJ	.
4ry	8r	4c#\	.
.	16aa/LL	.	.
.	16gg#/JJ	.	.
4r	16ff#/LL	4ry	.
.	16ee/	.	.
.	16dd/	.	.
.	16cc#/JJ	.	.
*	*v	*v	*
=119	=119	=119
4d\ 4f#\	16b/LL	.
.	16dd/	.
.	16ff#/	.
.	16ee/JJ	.
4r	16dd/LL	.
.	16cc#/	.
.	16b/	.
.	16a/JJ	.
4E\ 4B\ 4d\	16g#/LL	.
.	16a/	.
.	16b/	.
.	16a/JJ	.
4r	16g#/LL	.
.	16f#/	.
.	16e/	.
.	16d/JJ	.
=120	=120	=120
4A\	16c#/LL	.
.	16a/	.
.	16e/	.
.	16cc#/JJ	.
4r	16a\LL	.
.	16ee\	.
.	16cc#\	.
.	16aa\JJ	.
2r	16ee\LL	.
.	16ccc#\	.
.	16aa\	.
.	16eee\JJ	.
.	16ddd\LL	.
.	16ccc#\	.
.	16bb\	.
.	16aa\JJ	.
=121	=121	=121
4r	16gg#\LL	.
.	16aa\	.
.	16bb\	.
.	16aa\JJ	.
*clefG2	*	*
16b\LL	4gg#\	.
16dd\	.	.
16ee\	.	.
16dd\JJ	.	.
4b\	16r	.
.	16ddd\LL	.
.	16eee#\	.
.	16dddn\JJ	.
4r	16ccc#\LL	.
.	16bb\	.
.	16aa\	.
.	16gg#\JJ	.
=122	=122	=122
4r	16aa\LL	.
.	16bb\	.
.	16ccc#\	.
.	16bb\JJ	.
16cc#\LL	4aa\	.
16ee\	.	.
16aa\	.	.
16ee\JJ	.	.
4cc#\	8r	.
.	16ccc#\LL	.
.	16bb\JJ	.
4r	16aa\LL	.
.	16gg#\	.
.	16ff#\	.
.	16ee\JJ	.
=123	=123	=123
4f#/ 4a/	16dd#\LL	.
.	16ee\	.
.	16ff#\	.
.	16gg#\JJ	.
4r	16aa\LL	.
.	16gg#\	.
.	16ff#\	.
.	16ee\JJ	.
*clefF4	*	*
4F#\ 4A\	16dd#\LL	.
.	16cc#\	.
.	16b\	.
.	16a\JJ	.
4r	16g#/LL	.
.	16f#/	.
.	16e/	.
.	16d#X/JJ	.
=124	=124	=124
16E\LL	4e/	.
16e\	.	.
16F#\	.	.
16e\JJ	.	.
16G#\LL	4r	.
16e\	.	.
16A\	.	.
16e\JJ	.	.
16B\LL	2r	.
16e\	.	.
16c#\	.	.
16e\JJ	.	.
16d\LL	.	.
16e#\	.	.
16f#\	.	.
16e#\JJ	.	.
=125	=125	=125
16dn\LL	2gg#\	.
16e\	.	.
16B\	.	.
16e\JJ	.	.
16G#\LL	.	.
16e\	.	.
16E\	.	.
16e\JJ	.	.
16D\LL	(8aa\L	.
16e\	.	.
16E\	8gg#\)	.
16e\JJ	.	.
16D\LL	(8ff#W\	.
16e\	.	.
16E\	8ee\J)	.
16e\JJ	.	.
=126	=126	=126
16C#\LL	4ee\	.
16e\	.	.
16E\	.	.
16e\JJ	.	.
.	(eeq/	.
16A\LL	4.ccc#\)	.
16e\	.	.
16c#\	.	.
16e\JJ	.	.
16A\LL	.	.
16e\	.	.
16c#\	(16ddd\LL	.
16e\JJ	16ccc#\JJ)	.
16A\LL	8bb'\L	.
16e\	.	.
16c#\	8aa'\J	.
16e\JJ	.	.
=127	=127	=127
16d\LL	2gg#\	.
16e\	.	.
16B\	.	.
16e\JJ	.	.
16G#\LL	.	.
16e\	.	.
16E\	.	.
16e\JJ	.	.
16D\LL	(8aa\L	.
16e\	.	.
16E\	8gg#\)	.
16e\JJ	.	.
16D\LL	(8ff#W\	.
16e\	.	.
16E\	8ee\J)	.
16e\JJ	.	.
=128	=128	=128
16C#\LL	4ee\	.
16e\	.	.
16E\	.	.
16e\JJ	.	.
.	(16eeq/LL	.
.	16aaq/	.
.	16ccc#q/JJ)	.
16A\LL	4.eee\	.
16e\	.	.
16c#\	.	.
16e\JJ	.	.
16A\LL	.	.
16e\	.	.
16c#\	(16ddd#\LL	.
16e\JJ	16eee\JJ	.
16A\LL	16dddn\LL	.
16e\	16ccc#\	.
16c#\	16bb\	.
16e\JJ	16aa\JJ)	.
=129	=129	=129
16d\LL	2gg#S\	.
16e\	.	.
16B\	.	.
16e\JJ	.	.
16G#\LL	.	.
16e\	.	.
16E\	.	.
16e\JJ	.	.
16D\LL	(8aa\L	.
16e\	.	.
16E\	8gg#\)	.
16e\JJ	.	.
16D\LL	(8ff#W\	.
16e\	.	.
16E\	8ee\J)	.
16e\JJ	.	.
=130	=130	=130
*	*^	*
16C#\LL	2ry	8ee\	.
16e\	.	.	.
16E\	.	4a\ 4aa\	.
16e\JJ	.	.	.
16C#\LL	.	.	.
16e\	.	.	.
16E\	.	8gn\ 8ggn\	.
16e\JJ	.	.	.
16Cn\LL	4ff#S/	4.f#\	.
16d\	.	.	.
16D\	.	.	.
16d\JJ	.	.	.
16C\LL	(8ff#/L	.	.
16d\	.	.	.
16D\	8aa/J)	8a\	.
16d\JJ	.	.	.
*	*v	*v	*
=131	=131	=131
16BB\LL	4a\ (4aa\	.
16d\	.	.
16D\	.	.
16d\JJ	.	.
16BB\LL	4gn\ 4ggn\)	.
16d\	.	.
16D\	.	.
16d\JJ	.	.
16BB\LL	4r	.
16c#X\	.	.
16C#X\	.	.
16c#\JJ	.	.
16BB\LL	4e#\ 4ee#\	.
16c#\	.	.
16C#\	.	.
16c#\JJ	.	.
=132	=132	=132
*	*^	*
16AA#\LL	2ry	8g#\ (8gg#\	.
16c#\	.	.	.
16C#\	.	4f#^\ 4ff#^\	.
16c#\JJ	.	.	.
16AA#\LL	.	.	.
16c#\	.	.	.
16C#\	.	8en\ 8een\)	.
16c#\JJ	.	.	.
16AAn\LL	4dd#S/	4.d#\	.
16B\	.	.	.
16BB\	.	.	.
16B\JJ	.	.	.
16AA\LL	(8dd#/L	.	.
16B\	.	.	.
16BB\	8ff#/J)	8f#\	.
16B\JJ	.	.	.
*	*v	*v	*
=133	=133	=133
16GG#\LL	4f#\ (4ff#\	>
16B\	.	.
16BB\	.	.
16B\JJ	.	.
16GG#\LL	4e\ 4ee\)	.
16B\	.	.
16BB\	.	.
16B\JJ	.	.
16GGn\LL	4r	.
16A\	.	.
16AA\	.	.
16A\JJ	.	.
16GG\LL	4c#/ 4cc#/	.
16A\	.	.
16AA\	.	.
16A\JJ	.	.
=134	=134	=134
16FF#\LL	8e/ 8ee/	.
16A\	.	.
16AA\	4d/ 4dd/	.
16A\JJ	.	.
16EE\LL	.	.
16A\	.	.
16AA\	4c#/ 4cc#/	.
16A\JJ	.	.
16DD\LL	.	.
16A\	.	.
16AA\	4B/ 4b/	.
16A\JJ	.	.
16DD#\LL	.	.
16A\	.	.
16AA\	8f#/ 8ff#/	.
16A\JJ	.	.
=135	=135	=135
*	*^	*
16EE/LL	2aS/	2ry	.
16AA/	.	.	.
16C#/	.	.	.
16E/JJ	.	.	.
16EE/LL	.	.	.
16AA/	.	.	.
16C#/	.	.	.
16E/JJ	.	.	.
16EE/LL	(4.cc#/	2d\ 2g#\	.
16BB/	.	.	.
16D/	.	.	.
16E/JJ	.	.	.
16EE/LL	.	.	.
16BB/	.	.	.
16D/	8b/)	.	.
16E/JJ	.	.	.
*	*v	*v	*
=136	=136	=136
24r	4c#/ 4a/	.
24AA\LL	.	.
24C#\	.	.
24E\	.	.
24A\	.	.
24c#\JJ	.	.
4r	24e\LL	.
.	24a\	.
.	24cc#\	.
.	24ee\	.
.	24aa\	.
.	24ccc#\JJ	.
8A\L	4eee'\	.
8e\	.	.
8c#\	4eee'\	.
8e\J	.	.
=137	=137	=137
8B\L	(8eee\L	.
8e\	16g#\Jk)	.
.	16r	.
8d\	2g#/	.
8e\J	.	.
8B\L	.	.
8e\	.	.
8d\	4g#/	.
8e\J	.	.
=138	=138	=138
8c#\L	8r	.
8e\	(16g#/LL	.
.	16a/JJ)	.
8G#\	8r	.
8e\J	(16a#/LL	.
.	16b/JJ)	.
8A\L	8r	.
8e\	(16b#\LL	.
.	16cc#\JJ)	.
8F#\	8r	.
8A\J	(16cc#\LL	.
.	16dd\JJ)	.
=139	=139	=139
8E\L	[4ee\	.
8c#\	.	.
8A\	16ee\LL]	.
.	(32dd#\L	.
.	32ee\JJJ	.
8c#\J	32ff#\LLL	.
.	32ee\	.
.	32ddn\	.
.	32cc#\JJJ	.
8E\L	4bn\)	.
8G#\	.	.
8D\	4r	.
8G#\J	.	.
=140	=140	=140
8C#\L	8r	.
8A\	16A/LL	.
.	16c#/JJ	.
8E\	24e\LL	.
.	24a\	.
.	24cc#\	.
8A\J	24ee\	.
.	24gg#\	.
.	24ccc#\JJ	.
8C#\L	4eee'\	.
8A\	.	.
8E\	4eee'\	.
8A\J	.	.
=141	=141	=141
8C#\L	(8eee\L	.
8B-\	16b-\Jk)	.
.	16r	.
8E\	[4b-\	.
8B-\J	.	.
8Cn\L	(8b-\L]	.
8B-\	8ggn\	.
8E\	8ee\	.
8B-\J	8b-\J)	.
=142	=142	=142
8Cn\L	(8a\L	.
8A\	8ccn\	.
8Fn\	8ffn\	.
8A\J	8cc\J	.
8C\L	8aa\L	.
8A\	8ff\	.
8F\	8cc\	.
8A\J	8a\J)	.
=143	=143	=143
8Cn\L	4b-T\	.
8B-\	.	.
.	16aq/LL	.
.	16b-q/JJ	.
8E\	[4ggn\	.
8B-\J	.	.
8C\L	8gg\L]	.
8B-\	(8ee\	.
8E\	8ccn\	.
8B-\J	8b-\J)	.
=144	=144	=144
8Cn\L	16a\LL	.
.	16ccn\	.
8A\	16ffn\	.
.	16ee\JJ	.
8Fn\	16ff\LL	.
.	16cc\	.
8A\J	16aa\	.
.	16gg#\JJ	.
8C\L	16aa\LL	.
.	16ff\	.
8A\	16cccn\	.
.	16bbn\JJ	.
8F\	16ccc\LL	.
.	16aa\	.
8A\J	16ff\	.
.	16cc\JJ	.
=145	=145	=145
8Cn\L	(4b-T\	.
8B-\	.	.
.	16aq/LL	.
.	16b-q/JJ	.
8E\	2ggn\	.
8B-\J	.	.
8C\L	.	.
8B-\	.	.
8E\	4b-\)	.
8B-\J	.	.
=146	=146	=146
8C#X\L	(4a#/	<
8A#\	.	.
8E\	2ggn\	>
8A#\J	.	.
8C#\L	.	.
8A#\	.	.
8E\	4a#/)	.
8A#\J	.	.
=147	=147	=147
8D\L	(8bn\L	.
8Bn\	8ff#X\	.
8F#X\	8ee#\	>
8B\J	8ff#\J	.
8D\L	8een\L	.
8B\	8dd\	.
8F#\	8cc#\	.
8B\J	8b\J)	.
=148	=148	=148
8E\L	(2anS\	pp
8c#\	.	.
8A\	.	.
8c#\J	.	.
8E\L	4.cc#\	.
8d\	.	.
8G#\	.	.
8d\J	8b\)	.
=149	=149	=149
4A\ 4c#\	8a/	mf
.	8c#/ 8e/L	.
(24AAA/LL	8c#/ 8e/	.
24CC#/	.	.
24EE/	.	.
24AA/	8c#/ 8e/J	.
24C#/	.	.
24E/JJ)	.	.
4A'\	8c#/ 8e/L	.
.	8c#/ 8e/	.
4A'\	8c#/ 8e/	.
.	8c#/ 8e/J	.
=150	=150	=150
*^	*	*
8B/ 8d/ 8e/L	4G#\	4r	.
8B/ 8d/ 8e/	.	.	.
8B/ 8d/ 8e/	4r	(24e\LL	.
.	.	24g#\	.
.	.	24b\	.
8B/ 8d/ 8e/J	.	24ee\	.
.	.	24gg#\	.
.	.	24bb\JJ)	.
2ry	8G#\ 8B\ 8e\L	4ddd'\	.
.	8G#\ 8B\ 8e\	.	.
.	8G#\ 8B\ 8e\	4ddd'\	.
.	8G#\ 8B\ 8e\J	.	.
*v	*v	*	*
=151	=151	=151
8A\ 8c#\ 8e\L	4ccc#\	.
8A\ 8c#\ 8e\J	.	.
24AAA/LL	8A/ 8c#/ 8e/L	.
24CC#/	.	.
24EE/	.	.
24AA/	8A/ 8c#/ 8e/J	.
24C#/	.	.
24E/JJ	.	.
4A'\	8c#/ 8e/L	.
.	8c#/ 8e/	.
4A'\	8c#/ 8e/	.
.	8c#/ 8e/J	.
=152	=152	=152
*^	*	*
8B/ 8d/ 8e/L	4G#\	4r	.
8B/ 8d/ 8e/	.	.	.
8B/ 8d/ 8e/	4ry	24e\LL	.
.	.	24g#\	.
.	.	24b\	.
8B/ 8d/ 8e/J	.	24ee\	.
.	.	24gg#\	.
.	.	24bb\JJ	.
8G#\ 8B\ 8e\L	4ry	4ddd'\	.
8G#\ 8B\ 8e\	.	.	.
8G#\ 8B\ 8e\	4ry	4ddd'\	.
8G#\ 8B\ 8e\J	.	.	.
*v	*v	*	*
=153	=153	=153
8A\ 8c#\ 8e\L	4ccc#\	.
8A\ 8c#\ 8e\J	.	.
24AAA/LL	8A/ 8c#/ 8e/L	.
24CC#/	.	.
24EE/	.	.
24AA/	8A/ 8c#/ 8e/J	.
24C#/	.	.
24E/JJ	.	.
4A'\	8c#/ 8e/L	.
.	8c#/ 8e/	.
4A'\	8c#/ 8e/	.
.	8c#/ 8e/J	.
=154	=154	=154
8Gn\ 8A\L	4c#/ 4e/	f
8G\ 8A\	.	.
8G\ 8A\	24A/LL	.
.	24c#/	.
.	24e/	.
8G\ 8A\J	24a/	.
.	24cc#/	.
.	24ee/JJ	.
8G\ 8A\ 8c#\L	4aa'\	.
8G\ 8A\ 8c#\	.	.
8G\ 8A\ 8c#\	4aa'\	.
8G\ 8A\ 8c#\J	.	.
=155	=155	=155
8F#\ 8A\L	(8aa\L	.
8F#\ 8A\	16d\Jk)	.
.	16r	.
8F#\ 8A\	2d/	.
8F#\ 8A\J	.	.
8Fn\ 8A\L	.	.
8F\ 8A\	.	.
8F\ 8A\	4d#/	.
8F\ 8A\J	.	.
=156	=156	=156
8E\L	(4.c#/ 4.e/	p
8E\	.	.
8EE\	.	.
8E\J	8A/ 8c#/	.
8EE\L	4.B/ 4.d/	.
8E\	.	.
8EE\	.	.
8E\J	8G#/ 8B/)	.
=157	=157	=157
8AA\L	4c#/	.
8A\	.	.
8A\	(24A/LL	f
.	24c#/	.
.	24e/	.
8A\J	24a/	.
.	24cc#/	.
.	24ee/JJ)	.
8Gn\ 8A\ 8c#\L	4aa'\	.
8G\ 8A\ 8c#\	.	.
8G\ 8A\ 8c#\	4aa'\	.
8G\ 8A\ 8c#\J	.	.
=158	=158	=158
8F#\ 8A\L	(8aa\L	.
8F#\ 8A\	16d\Jk)	.
.	16r	.
8F#\ 8A\	2d/	.
8F#\ 8A\J	.	.
8F#\ 8A\L	.	.
8F#\ 8A\	.	.
8F#\ 8A\	4aa\	.
8F#\ 8A\J	.	.
=159	=159	=159
8Fn\ 8An\ 8cn\L	(8aa\L	.
8F\ 8A\ 8c\	16e-\Jk)	.
.	16r	.
8F\ 8A\ 8c\	2e-/	.
8F\ 8A\ 8c\J	.	.
8F\ 8A\ 8c\L	.	.
8F\ 8A\ 8c\	.	.
8F\ 8c\ 8e-\	4aa\	.
8F\ 8c\ 8e-\J	.	.
=160	=160	=160
*^	*^	*
2B-/ 2d/	1Fn	2ry	(8bb-\L	.
.	.	.	8aa\)	.
.	.	.	8ggn'\	.
.	.	.	8ffn'\J	.
2cn/ 2e-/	.	2ee-/	8r	.
.	.	.	8a'\L	.
.	.	.	8gn'\	.
.	.	.	8fn'\J	.
*v	*v	*	*	*
=161	=161	=161	=161
2Fn\ 2B-\ 2d\	2dd/	(8b-\L	.
.	.	8a\)	.
.	.	8gn'\	.
.	.	8fn'\J	.
2FFn/ 2Cn/ 2E-/	8r	2e-\	.
.	8a'/L	.	.
.	8g'/	.	.
.	8f'/J	.	.
*	*v	*v	*
=162	=162	=162
2.FFn/ 2.BB-/ 2.D/	12d'/ 12b-'/L	ff
.	12B-'/	.
.	12Bn'/J	.
.	12cn'/L	.
.	12c#'/	.
.	12d'/J	.
.	12e-'/L	.
.	12en'/	.
.	12fn'/J	.
8.FF/ 8.BB-/ 8.D/L	(12g#/L	.
.	12f/)	.
.	12B-'/J	.
16FF/ 16BB-/ 16D/Jk	.	.
=163	=163	=163
2.FFn/ 2.Cn/ 2.E-/	12r	.
.	12A'/L	.
.	12B-'/J	.
.	12Bn'/L	.
.	12cn'/	.
.	12c#'/J	.
.	12d'/L	.
.	12e-'/	.
.	12en'/J	.
8.FF/ 8.C/ 8.E-/L	(12fn/L	.
.	12e-/)	.
.	12A'/J	.
16FF/ 16C/ 16E-/Jk	.	.
=164	=164	=164
2.FFn/ 2.BB-/ 2.D/	12r	.
.	12B-'/L	.
.	12Bn'/J	.
.	12cn'/L	.
.	12c#'/	.
.	12d'/J	.
.	12e-'/L	.
.	12en'/	.
.	12fn'/J	.
8.FF/ 8.BB-/ 8.D/L	12f#'/L	.
.	12gn'/	.
.	12g#'/J	.
16FF/ 16BB-/ 16D/Jk	.	.
=165	=165	=165
2.FF#X/ 2.AA/ 2.Cn/ 2.D#/	12r	.
.	(12a\L	.
.	12bn\J)	.
.	12ccn'\L	.
.	(12a\	.
.	12b\J)	.
.	12cc'\L	.
.	(12a\	.
.	12b\J)	.
8.FF#/ 8.AA/ 8.C/ 8.D#/L	12cc'\L	.
.	(12b'\	.
.	12a\J)	.
16FF#/ 16AA/ 16C/ 16D#/Jk	.	.
=166	=166	=166
4EE/ 4GG#/ 4BB/ 4E/	12g#X'/L	.
.	12e'/	.
.	12fn'/J	.
4E\ 4G#\ 4B\	12f#'/L	.
.	12gn'/	.
.	12g#'/J	.
4r	12a'/L	.
.	12a#'/	.
.	12b'/J	.
8.E\ 8.G#\ 8.B\L	(12ccn'/L	.
.	12b/)	.
.	12e'/J	.
16E\ 16G#\ 16B\Jk	.	.
=167	=167	=167
4E\ 4A\ 4cn\	12r	.
.	12f#X'/L	.
.	12g#'/J	.
4E\ 4A\ 4c\	12a'\L	.
.	12b'\	.
.	12ccn'\J	.
4r	12cc#'\L	.
.	12dd'\	.
.	12dd#'\J	.
8.E\ 8.A\ 8.c\L	12ee'\L	.
.	12ee#'\	.
.	12ff#'\J	.
16E\ 16A\ 16c\Jk	.	.
=168	=168	=168
4E\ 4B\ 4d\	12r	.
.	12g#'\L	.
.	12a'\J	.
4E\ 4B\ 4d\	12a#'\L	.
.	12b'\	.
.	12ccn'\J	.
4r	12cc#'\L	.
.	12dd'\	.
.	12dd#'\J	.
8.E\ 8.B\ 8.d\L	(12ee\L	.
.	12ddn\)	.
.	12g#'\J	.
16E\ 16B\ 16d\Jk	.	.
=169	=169	=169
4E\ 4c#X\ 4e\	12r	.
.	12a'\L	.
.	12b'\J	.
4E\ 4c#\ 4e\	12cc#X'\L	.
.	12dd'\	.
.	12dd#'\J	.
4r	12ee'\L	.
.	12ee#'\	.
.	12ff#'\J	.
8.E\ 8.c#\ 8.e\L	12ggn'\L	.
.	12gg#'\	.
.	12aa'\J	.
16E\ 16c#\ 16e\Jk	.	.
=170	=170	=170
4E\ 4G#\ 4B\ 4d\	12r	.
.	12b'\L	p
.	12cc#X'\J	.
4r	12dd'\L	.
.	12dd#'\	.
.	12ee'\J	.
2r	12ee#'\L	.
.	12ff#'\	.
.	12ggn'\J	.
.	12gg#'\L	.
.	12aa'\	.
.	12aa#'\J	.
=171	=171	=171
1r	12bb'\L	>
.	12cccn'\	.
.	12ccc#'\	.
.	12ddd'\	.
.	12ccc#'\	.
.	12bb'\J	.
.	12aa'\L	.
.	12gg#'\	.
.	12ff#'\	.
.	12ee'\	.
.	12dd'\	.
.	12cc#'\J	.
=172	=172	=172
2ry	12b'/L	.
.	12a'/	.
.	12g#'/	.
.	12f#'/	.
.	12e'/	.
.	12d'/J	.
12c#'/L	2ry	.
12B'/	.	.
12A'/	.	.
12G#'/	.	.
12F#'/	.	.
12E'/J	.	.
=173	=173	=173
12D'/L	1ry	.
12C#'/	.	.
12BB'/	.	.
12AA'/	.	.
12GG#'/	.	.
12FF#'/J	.	.
12EE'\L	.	.
12FF#'\	.	.
12EE'\	.	.
12DD'\	.	.
12CC#'\	.	.
12BBB\J	.	.
=174	=174	=174
24AAA/LL	4r	.
24CC#/	.	.
24EE/	.	.
24AA/	.	.
24C#/	.	.
24E/JJ	.	.
4r	32A\LLL	.
.	32c#\	.
.	32e\	.
.	32a\	.
.	32cc#\	.
.	32ee\	.
.	32aa\	.
.	32ccc#\JJJ	.
8A\L	4eee'\	.
8e\	.	.
8c#\	4eee'\	.
8e\J	.	.
=175	=175	=175
8B\L	(8eee\L	.
8e\	16g#\Jk)	.
.	16r	.
8d\	2g#/	.
8e\J	.	.
8B\L	.	.
8e\	.	.
8d\	4g#/	.
8e\J	.	.
=176	=176	=176
8c#\L	24a/LL	.
.	24b/	.
.	24a/	.
8e\	24g#/	.
.	24a/	.
.	24a#/JJ	.
8G#\	24b\LL	.
.	24cc#\	.
.	24b\	.
8e\J	24a#\	.
.	24b\	.
.	24b#\JJ	.
8A\L	24cc#\LL	.
.	24dd\	.
.	24cc#\	.
8e\	24b#\	.
.	24cc#\	.
.	24an\JJ	.
8F#\	24dd\LL	.
.	24ee\	.
.	24dd\	.
8A\J	24cc#\	.
.	24dd\	.
.	24dd#\JJ	.
=177	=177	=177
8E\L	24ee\LL	.
.	24ff#\	.
.	24ee\	.
8c#\	24dd#\	.
.	24ee\	.
.	24ee#\JJ	.
8A\	(16ff#\LL	.
.	16een\)	.
8c#\J	16ddn'\	.
.	16cc#'\JJ	.
8E\L	4b\	.
8G#\	.	.
8D\	4r	.
8G#\J	.	.
=178	=178	=178
8C#\L	8r	.
8A\	16A/LL	.
.	16c#/JJ	.
8E\	24e\LL	.
.	24a\	.
.	24cc#\	.
8A\J	24ee\	.
.	24aa\	.
.	24ccc#\JJ	.
8C#\L	8eee\L	.
8A\	(16ddd#\L	.
.	16eee\JJ)	.
8C#\	(16ddd#\LL	.
.	16eee\)	.
8A#\J	(16ddd#\	.
.	16eee\JJ)	.
=179	=179	=179
8D\L	(8eee\L	.
8A#\	16f#\Jk)	.
.	16r	.
8F#\	4.f#/	.
8A#\J	.	.
8D\L	.	.
8B\	16dd\LL	.
.	16cc#\JJ	.
8F#\	16ee\LL	.
.	16dd\	.
8B\J	16cc#\	.
.	16b\JJ	.
=180	=180	=180
8E\L	(2aS\	.
8c#\	.	.
8A\	.	.
8c#\J	.	.
8E\L	8cc#\L	.
8d\	8b\	.
8B\	8dd\	.
8d\J	8g#\J)	.
=181	=181	=181
8A\L	16a\LL	.
.	16g#\	.
8e\	16b\	.
.	16a\JJ	.
8c#\	16cc#\LL	.
.	16b\	.
8e\J	16dd\	.
.	16cc#\JJ	.
8A\L	16ee\LL	.
.	16dd#\	.
8e\	16ff#\	.
.	16ee\JJ	.
8c#\	16ddn\LL	.
.	16cc#\	.
8e\J	16b\	.
.	16a\JJ	.
=182	=182	=182
8B\L	4g#/	.
8e\	.	.
.	(g#q/	.
8d\	(2dd\)	>
8e\J	.	.
8E\L	.	.
8e\	.	.
8d\	8b\L	.
8e\J	8g#\J)	.
=183	=183	=183
8A\L	16a\LL	.
.	(16g#\	.
8e\	16b\)	.
.	(16a\JJ	.
8c#\	16cc#\LL)	.
.	(16b\	.
8e\J	16dd\)	.
.	(16cc#\JJ	.
8A\L	16ee\LL)	.
.	(16dd#\	.
8e\	16ff#\)	.
.	(16ee\JJ	.
8c#\	16ddn\LL)	.
.	(16cc#\	.
8e\J	16b\)	.
.	16a\JJ	.
=184	=184	=184
8B\L	(8.g#t/L	.
8e\	.	.
.	32f#/LL	.
.	32g#/JJJ)	.
8d\	(2dd\	>
8e\J	.	.
8E\L	.	.
8e\	.	.
8d\	8b\L	.
8e\J	8g#\J)	.
=185	=185	=185
4A\ 4c#\	16a\LL	<
.	16g#\	.
.	16b\	.
.	16a\JJ	.
4r	16cc#\LL	.
.	16b\	.
.	16dd\	.
.	16cc#\JJ	.
2r	16ee\LL	.
.	16dd#\	.
.	16ff#\	.
.	16ee\JJ	.
.	16aa\LL	.
.	16gg#\	.
.	16bb\	.
.	16aa\JJ	.
=186	=186	=186
2.r	16gg#'\LL	f
.	16ff#'\	.
.	16ee'\	>
.	16ddn'\JJ	.
.	16cc#'/LL	.
.	16b'/	.
.	16a'/	.
.	16g#'/JJ	.
.	16f#'/LL	.
.	16e'/	.
.	16d'/	.
.	16c#'/JJ	p
16B'/LL	4r	.
16A'/	.	.
16G#'/	.	.
16F#'/JJ	.	.
=187	=187	=187
*^	*	*
4E/	1EE 1BB 1D	1ry	.
(4d/	.	.	.
4B/	.	.	.
4G#/)	.	.	.
=188	=188	=188	=188
2D/ 2E/ 2G#/ (2B/	(4.AAA\	1ry	.
.	16CC#\LL	.	.
.	16EE\JJ)	.	.
4C#/ 4E/ 4A/)	4AA\	.	.
4r	4r	.	.
*v	*v	*	*
==	==	==
*-	*-	*-
!!!ENC: Craig Stuart Sapp
!!!END: 2008/01/23/
!!!hum2abc: --spacing 2.0 -s 0.73
